X: 3
T: Andy de Jarlis' Jig v.1   [E]
C: trad.
S: Jerry Holland, who learned it from Mike MacDougall
R: jig
M: 6/8
L: 1/8
K: E
|: "E"EGB EGB | EGB "A"c2B | "E"EGB EGB | "D"=DFA B2A \
|  "E"EGB EGB | EGB "A"c2a | "B7"g2f Bcd | "E"e6 :|
f- \
|: "E"gbg efg | "F#m"gba c3 | "B7"f2g f2e | dcB c2B \
|  "E"gbg efg | "F#m"gba c2a | "B7"g2f Bcd | "E"e6 :|

%%sep 1 1 500

